src/images_karasa_jaga_svg/svx/res/extrusion05inch_16.svg

<svg height="16" viewBox="0 0 4.2333333 4.2333335" width="16" xmlns="http://www.w3.org/2000/svg" xmlns:xlink="http://www.w3.org/1999/xlink"><linearGradient id="a"><stop offset="0" stop-color="#c4d2f2"/><stop offset="1" stop-color="#c7d5f4"/></linearGradient><linearGradient id="b" gradientUnits="userSpaceOnUse" x1="48.002456" x2="88.002459" xlink:href="#a" y1="39.985155" y2="15.985269"/><linearGradient id="c" gradientUnits="userSpaceOnUse" x1="63.502457" x2="104.502463" xlink:href="#a" y1="64.346441" y2="64.346441"/><linearGradient id="d" gradientUnits="userSpaceOnUse" x1="-.013695" x2="88.004555" xlink:href="#g" y1="55.992188" y2="55.992188"/><linearGradient id="e" gradientUnits="userSpaceOnUse" x1="55.958984" x2="88.042969" xlink:href="#g" y1="83.984467" y2="83.984467"/><linearGradient id="f" gradientTransform="matrix(1.025641 0 0 1.0256402 -1.835524 -5.266586)" gradientUnits="userSpaceOnUse" x1="2.116667" x2="16.933332" xlink:href="#g" y1="288.53333" y2="280.06665"/><linearGradient id="g"><stop offset="0" stop-color="#7c9bce"/><stop offset="1" stop-color="#7c9bce"/></linearGradient><linearGradient id="h" gradientUnits="userSpaceOnUse" x1="2.368228" x2="13.765663" y1="290.131931" y2="283.6191"><stop offset="0" stop-color="#f1f6fd"/><stop offset="1" stop-color="#d7e2fa"/></linearGradient><g transform="matrix(.125 0 0 .125 .000227 -32.89208)"><g fill-rule="evenodd"><path d="m79.761719 39.947266a8.0441441 8.0441441 0 0 0 -5.449219 2.351562l-15.998047 15.998047a8.0441441 8.0441441 0 0 0 -2.355469 5.6875v56.000005a8.0441441 8.0441441 0 0 0 14.863282 4.26367l15.998046-25.595706a8.0441441 8.0441441 0 0 0 1.222657-4.263672v-46.402344a8.0441441 8.0441441 0 0 0 -8.28125-8.039062z" fill="url(#e)" transform="matrix(.26458333 0 0 .26458333 0 263.13332)"/><path d="m80 47.986328-15.998047 15.998047v56.000005l15.998047-25.595708z" fill="url(#c)" transform="matrix(.26458333 0 0 .26458333 0 263.13332)"/><path d="m30.380859 39.982422a8.0180194 8.0180194 0 0 0 -4.660156 1.49414l-22.3789061 15.984376a8.0180194 8.0180194 0 0 0 4.6601562 14.541015h55.9999999a8.0180194 8.0180194 0 0 0 5.669922-2.347656l15.984375-15.984375a8.0180194 8.0180194 0 0 0 -5.669922-13.6875z" fill="url(#d)" transform="matrix(.26458333 0 0 .26458333 0 263.13332)"/><path d="m30.380859 48-22.3789059 15.984375h55.9999999l15.984375-15.984375z" fill="url(#b)" transform="matrix(.26458333 0 0 .26458333 0 263.13332)"/></g><rect fill="url(#f)" height="16.933338" rx="2.116668" ry="2.116669" width="16.933338" y="280.06665"/><path d="m2.116667 282.18332h12.700001v12.700011h-12.700001z" fill="url(#h)"/></g></svg>

<?xml version="1.0" encoding="UTF-8" standalone="no"?>
<!-- Created with Inkscape (http://www.inkscape.org/) -->

<svg
   xmlns:dc="http://purl.org/dc/elements/1.1/"
   xmlns:cc="http://creativecommons.org/ns#"
   xmlns:rdf="http://www.w3.org/1999/02/22-rdf-syntax-ns#"
   xmlns:svg="http://www.w3.org/2000/svg"
   xmlns="http://www.w3.org/2000/svg"
   xmlns:xlink="http://www.w3.org/1999/xlink"
   xmlns:sodipodi="http://sodipodi.sourceforge.net/DTD/sodipodi-0.dtd"
   xmlns:inkscape="http://www.inkscape.org/namespaces/inkscape"
   width="128"
   height="128"
   viewBox="0 0 33.866666 33.866668"
   version="1.1"
   id="svg8"
   inkscape:version="0.92.3 (unknown)"
   sodipodi:docname="extrusion05inch_16.svg"
   inkscape:export-filename="/home/rizmut/Dokumen/Rizmut/Github/libreoffice-style-karasa-jaga/build/images_karasa_jaga/svx/res/extrusion05inch_16.png"
   inkscape:export-xdpi="12"
   inkscape:export-ydpi="12">
  <defs
     id="defs2">
    <linearGradient
       inkscape:collect="always"
       id="linearGradient938">
      <stop
         style="stop-color:#c4d2f2;stop-opacity:1;"
         offset="0"
         id="stop934" />
      <stop
         style="stop-color:#c7d5f4;stop-opacity:1"
         offset="1"
         id="stop936" />
    </linearGradient>
    <linearGradient
       inkscape:collect="always"
       id="linearGradient930">
      <stop
         style="stop-color:#f1f6fd;stop-opacity:1;"
         offset="0"
         id="stop926" />
      <stop
         style="stop-color:#d7e2fa;stop-opacity:1"
         offset="1"
         id="stop928" />
    </linearGradient>
    <linearGradient
       inkscape:collect="always"
       xlink:href="#linearGradient938"
       id="linearGradient940"
       x1="16.933332"
       y1="273.71664"
       x2="27.516666"
       y2="267.36667"
       gradientUnits="userSpaceOnUse"
       gradientTransform="matrix(3.7795276,0,0,3.7795276,-15.99754,-994.53444)" />
    <linearGradient
       inkscape:collect="always"
       xlink:href="#linearGradient938"
       id="linearGradient948"
       x1="21.034374"
       y1="280.16223"
       x2="31.882292"
       y2="280.16223"
       gradientUnits="userSpaceOnUse"
       gradientTransform="matrix(3.7795276,0,0,3.7795276,-15.99754,-994.53444)" />
    <linearGradient
       id="m"
       gradientTransform="matrix(0,0.46174514,0.80805411,0,-25.106709,262.35319)"
       gradientUnits="userSpaceOnUse"
       x1="95.126495"
       x2="64.143654"
       xlink:href="#g"
       y1="20.031025"
       y2="20.031025" />
    <linearGradient
       id="g">
      <stop
         offset="0"
         stop-color="#0968ef"
         id="stop1175" />
      <stop
         offset="1"
         stop-color="#aecffc"
         id="stop1177" />
    </linearGradient>
    <linearGradient
       inkscape:collect="always"
       xlink:href="#linearGradient841-6-3"
       id="linearGradient3752"
       x1="-0.013695403"
       y1="55.992188"
       x2="88.004555"
       y2="55.992188"
       gradientUnits="userSpaceOnUse" />
    <linearGradient
       inkscape:collect="always"
       xlink:href="#linearGradient841-6-3"
       id="linearGradient3754"
       x1="55.958984"
       y1="83.984467"
       x2="88.042969"
       y2="83.984467"
       gradientUnits="userSpaceOnUse" />
    <linearGradient
       inkscape:collect="always"
       xlink:href="#linearGradient841-6-3"
       id="linearGradient844"
       gradientUnits="userSpaceOnUse"
       gradientTransform="matrix(1.025641,0,0,1.0256402,-1.835524,-5.2665859)"
       x1="2.1166666"
       y1="288.53333"
       x2="16.933332"
       y2="280.06665" />
    <linearGradient
       inkscape:collect="always"
       id="linearGradient841-6-3">
      <stop
         style="stop-color:#7c9bce;stop-opacity:1"
         offset="0"
         id="stop837-7-6" />
      <stop
         style="stop-color:#7c9bce;stop-opacity:1"
         offset="1"
         id="stop839-5-7" />
    </linearGradient>
    <linearGradient
       inkscape:collect="always"
       xlink:href="#linearGradient930"
       id="linearGradient932-5"
       x1="2.1166666"
       y1="288.53333"
       x2="16.933332"
       y2="280.06665"
       gradientUnits="userSpaceOnUse"
       gradientTransform="matrix(0.76923079,0,0,0.76923079,0.74002339,68.18321)" />
  </defs>
  <sodipodi:namedview
     id="base"
     pagecolor="#ffffff"
     bordercolor="#666666"
     borderopacity="1.0"
     inkscape:pageopacity="0.0"
     inkscape:pageshadow="2"
     inkscape:zoom="2"
     inkscape:cx="-64.400905"
     inkscape:cy="40.899519"
     inkscape:document-units="mm"
     inkscape:current-layer="layer1"
     showgrid="true"
     units="px"
     inkscape:lockguides="false"
     inkscape:window-width="1366"
     inkscape:window-height="706"
     inkscape:window-x="0"
     inkscape:window-y="0"
     inkscape:window-maximized="1"
     inkscape:snap-global="false"
     inkscape:snap-smooth-nodes="true"
     inkscape:snap-nodes="true">
    <inkscape:grid
       type="xygrid"
       id="grid815"
       spacingx="2.1166667"
       spacingy="2.1166667"
       empspacing="1" />
  </sodipodi:namedview>
  <metadata
     id="metadata5">
    <rdf:RDF>
      <cc:Work
         rdf:about="">
        <dc:format>image/svg+xml</dc:format>
        <dc:type
           rdf:resource="http://purl.org/dc/dcmitype/StillImage" />
        <dc:title />
      </cc:Work>
    </rdf:RDF>
  </metadata>
  <g
     inkscape:label="Layer 1"
     inkscape:groupmode="layer"
     id="layer1"
     transform="translate(0,-263.13332)">
    <path
       sodipodi:type="inkscape:offset"
       inkscape:radius="8.0433397"
       inkscape:original="M 80 47.986328 L 64.001953 63.984375 L 64.001953 119.98438 L 80 94.388672 L 80 47.986328 z "
       style="fill:url(#linearGradient3754);fill-opacity:1.0;fill-rule:evenodd;stroke:none;stroke-width:1.88976383;stroke-linecap:butt;stroke-linejoin:miter;stroke-miterlimit:4;stroke-dasharray:none;stroke-opacity:0.95686275"
       id="path3726"
       d="M 79.761719,39.947266 A 8.0441441,8.0441441 0 0 0 74.3125,42.298828 L 58.314453,58.296875 a 8.0441441,8.0441441 0 0 0 -2.355469,5.6875 v 56.000005 a 8.0441441,8.0441441 0 0 0 14.863282,4.26367 L 86.820312,98.652344 a 8.0441441,8.0441441 0 0 0 1.222657,-4.263672 V 47.986328 a 8.0441441,8.0441441 0 0 0 -8.28125,-8.039062 z"
       transform="matrix(0.26458333,0,0,0.26458333,0,263.13332)" />
    <path
       style="fill:url(#linearGradient948);fill-opacity:1;fill-rule:evenodd;stroke:none;stroke-width:1.88976383;stroke-linecap:butt;stroke-linejoin:miter;stroke-miterlimit:4;stroke-dasharray:none;stroke-opacity:0.95686275"
       d="M 80 47.986328 L 64.001953 63.984375 L 64.001953 119.98438 L 80 94.388672 L 80 47.986328 z "
       transform="matrix(0.26458333,0,0,0.26458333,0,263.13332)"
       id="path922" />
    <path
       sodipodi:type="inkscape:offset"
       inkscape:radius="8.0172176"
       inkscape:original="M 30.380859 48 L 8.0019531 63.984375 L 64.001953 63.984375 L 79.986328 48 L 30.380859 48 z "
       style="fill:url(#linearGradient3752);fill-opacity:1.0;fill-rule:evenodd;stroke:none;stroke-width:1.88976383;stroke-linecap:butt;stroke-linejoin:miter;stroke-miterlimit:4;stroke-dasharray:none;stroke-opacity:0.95686275"
       id="path3722"
       d="m 30.380859,39.982422 a 8.0180194,8.0180194 0 0 0 -4.660156,1.49414 L 3.3417969,57.460938 A 8.0180194,8.0180194 0 0 0 8.0019531,72.001953 H 64.001953 a 8.0180194,8.0180194 0 0 0 5.669922,-2.347656 L 85.65625,53.669922 a 8.0180194,8.0180194 0 0 0 -5.669922,-13.6875 z"
       transform="matrix(0.26458333,0,0,0.26458333,0,263.13332)" />
    <path
       style="fill:url(#linearGradient940);fill-opacity:1;fill-rule:evenodd;stroke:none;stroke-width:1.88976383;stroke-linecap:butt;stroke-linejoin:miter;stroke-miterlimit:4;stroke-dasharray:none;stroke-opacity:0.95686275"
       d="M 30.380859 48 L 8.0019531 63.984375 L 64.001953 63.984375 L 79.986328 48 L 30.380859 48 z "
       transform="matrix(0.26458333,0,0,0.26458333,0,263.13332)"
       id="path920" />
    <rect
       y="280.06665"
       x="3.8301391e-07"
       height="16.933338"
       width="16.933338"
       id="rect842"
       style="opacity:1;fill:url(#linearGradient844);fill-opacity:1;stroke:none;stroke-width:0.5128203;stroke-linecap:square;stroke-linejoin:round;stroke-miterlimit:4;stroke-dasharray:none;stroke-dashoffset:0;stroke-opacity:0.95686275"
       ry="2.1166694"
       rx="2.1166677" />
    <rect
       style="opacity:1;fill:url(#linearGradient932-5);fill-opacity:1;stroke:none;stroke-width:0.38461542;stroke-linecap:square;stroke-linejoin:round;stroke-miterlimit:4;stroke-dasharray:none;stroke-dashoffset:0;stroke-opacity:0.95686275"
       id="rect918-6"
       width="12.700001"
       height="12.700011"
       x="2.1166668"
       y="282.18332" />
  </g>
</svg>
